dist/assets/Logo.svg

<?xml version="1.0" encoding="UTF-8"?>
<svg xmlns="http://www.w3.org/2000/svg" viewBox="0 0 450.3 362.59">
  <defs>
    <style>
      .c {
        fill: #0D47A1;
        stroke-width: 0px;
      }
    </style>
  </defs>
  <g id="a" data-name="Layer 1">
    <g>
      <path class="c" d="m83.82,197.7c.35,1.67-2.36,1.04-2.77-.06-11.18-29.79-15.56-62.17-17.05-93.86-.75-16.36-.52-32.73.58-49.09.86-12.39,1.61-25.12,3.34-37.51-3.57,5.19-5.47,11.58-7.32,17.69-2.54,8.47-4.61,17.05-6.4,25.7-3.92,19.01-7.03,38.32-9.97,57.56-.12.69-.69,1.04-1.38.98-4.38-.23-6.57-3.34-7.38-7.49-1.61-7.84-1.79-16.31-2.48-24.26l-2.77-34.22c-1.09,12.21-2.13,24.37-3.23,36.59-1.67,17.86-2.65,35.95-5.65,53.64-.81,4.55-4.78,31.75-14.46,22.24-4.38-4.32-5.76-13.19-6.51-18.96-.92-7.61-.23-15.04,2.25-22.18.35-1.09,2.48-.12,2.3.92-1.56,7.14-2.25,14.58-1.27,21.95.52,3.57,1.38,7.09,2.59,10.49,1.15,3.28,3.69,9.79,6.91,4.15,3.51-6.05,4.72-14.29,5.88-21.09,1.09-6.57,1.79-13.19,2.42-19.82,2.82-29.38,5.13-58.88,7.14-88.38.12-1.79,3.23-.69,3.4.69,1.73,17.23,3.51,34.46,5.13,51.68.81,8.58,1.15,17.23,2.19,25.75.12.92.12,3.69,1.56,4.03-.06,0,1.04-5.47,1.21-6.34.92-4.84,1.73-9.68,2.59-14.52,2.71-15.61,5.3-31.23,9.05-46.61,3.23-13.37,6.57-29.15,16.02-39.7,1.33-1.5,5.13.06,5.07,2.07-.4,16.08-3.17,32.27-4.21,48.34-.98,15.33-1.15,30.65-.46,45.98,1.44,31.69,7.66,62.51,13.66,93.63Z"/>
      <path class="c" d="m87.11,153.86c-4.49-5.53-3.23-14.75-2.54-21.26.92-8.53,2.48-17.29,5.47-25.35.98-2.54,6.28-.29,5.65,2.3-2.71,10.89-5.42,21.72-5.53,33.01,0,1.96-.12,8.93,1.96,10.03,1.61.81,4.9-1.38,6.05-2.42.86-.81,1.61-1.96,2.36-2.88,3.57-4.44,5.88-9.05,8.41-14.12.17-.4,1.04-.06.92.35-1.9,6.74-12.56,33.01-22.76,20.34Zm2.19-54.33c-.29-.4-.58-1.15-.35-1.67,1.04-2.02,3-4.55,5.36-4.96,1.27-.17,3.86.63,3.75,2.36-.12,1.56-1.15,2.3-2.13,3.46-.46.52-.81,1.09-1.27,1.61-.63.75-1.44.92-2.36.92-1.21,0-2.36-.69-3-1.73Z"/>
      <path class="c" d="m110.9,189.35c-2.71-10.89-2.65-22.3-2.77-33.42-.12-11.7.23-23.33,1.09-35.03,1.44-20.05,3.98-40.33,8.47-59.98,2.13-9.33,4.72-18.9,8.93-27.54,2.02-4.26,6.22-13.37,12.21-11.64,7.14,2.07,5.19,13.02,4.15,18.26-1.79,9.1-4.26,18.03-7.03,26.91-5.76,18.26-12.79,36.18-20.51,53.76,0,.17,0,.35-.06.46-.81,11.29-1.21,22.64-1.15,33.94.06,3.92,0,7.89.12,11.87,1.96-10.43,4.38-20.74,7.55-30.88,2.59-8.12,5.3-16.65,9.91-23.91,1.56-2.48,4.84-8.64,8.47-6.97,4.67,2.19-1.27,10.89-2.82,13.31-4.32,6.91-11.35,15.04-8.24,23.85,1.84,5.07,8.12,8.24,13.19,6.51,4.09-1.44,5.76-3.86,7.89-7.49,4.09-6.86,7.38-14.06,10.54-21.38.4-.86,2.25-.12,2.02.81-2.19,8.12-5.65,15.38-9.91,22.59-2.82,4.78-5.76,7.72-11.58,8.53-4.32.63-9.85-2.25-12.73-5.36-1.5-1.61-2.42-3.57-2.94-5.59-4.15,16.08-6.86,32.55-8.76,49.09-.35,2.94-5.47,1.5-6.05-.69Zm5.59-80.61c6.4-15.84,12.85-31.69,17.05-48.28,1.44-5.76,2.82-11.58,3.75-17.52.4-2.48,3.23-15.1.58-16.71-.4-.29-5.99,10.03-6.74,11.87-2.07,4.9-3.69,10.03-5.07,15.15-5.01,17.98-7.84,36.76-9.56,55.49Zm15.15,12.91c.81-1.21,1.61-2.36,2.36-3.57.81-1.33,5.53-9.1,4.9-9.74-.4-.46-6.05,10.14-6.51,11.35-.29.63-.52,1.27-.75,1.96Z"/>
      <path class="c" d="m155.84,132.6c.69-8.01,4.15-15.61,8.01-22.53,3.23-5.82,7.14-11.64,13.25-14.75,5.13-2.65,11.58-3.46,16.59-.4,8.24,4.96,6.74,11.75,6.74,11.75-.63,1.04-2.54.52-3.11-.4-2.3-3.8-3.69-8.3-8.99-8.64-4.21-.35-8.41,2.19-11.35,4.9-5.07,4.72-8.35,11.47-11.12,17.69-1.61,3.75-3.05,7.72-3.63,11.75-.29,1.9-.46,3.86-.35,5.82.12,2.65,1.33,4.49,2.94,5.01,5.24,1.61,11.06-12.39,13.31-16.71,1.79-3.46,5.01-11.06,8.24-10.83,3.92.23,6.05,3.34,6.51,6.86.35,3.11.35,6.22.58,9.33.12,1.61.63,8.47,2.77,8.47,2.25,0,7.2-7.84,8.82-10.26,2.54-3.75,4.49-7.32,6.17-11.52.12-.35.92,0,.81.35-2.13,5.76-12.56,35.43-22.24,20.63-1.84-2.77-2.19-6.68-2.59-9.97-.23-1.84-.35-3.69-.4-5.59-1.15,3.34-3.8,7.09-5.47,9.85-1.84,3.11-3.86,6.11-6.11,8.93-3.28,4.26-8.24,8.64-13.89,5.76-5.53-2.77-5.99-10.03-5.47-15.5Z"/>
      <path class="c" d="m228.04,227.72c-7.26-7.95-2.65-21.26-.46-30.42,2.65-11.18,6.63-22.01,11.98-32.21,4.72-8.99,10.6-17.46,17.46-25.06-.98-8.47-2.65-17-5.82-24.78-1.04-2.42-2.82-8.87-5.93-6.34-1.73,1.44-3.17,5.01-4.21,6.97-2.19,4.03-4.15,8.24-6.74,12.1-3.98,5.93-11.7,13.66-18.96,7.55-7.26-6.17-5.01-19.99-2.19-27.71.86-2.25,5.82-.23,5.07,2.07-.92,3.11-5.53,25.64,3.57,23.1,3.28-.86,6.57-6.17,8.24-8.87,1.56-2.48,2.88-5.13,4.26-7.78,2.02-3.86,4.61-11.29,9.39-12.68,4.84-1.38,8.35,2.82,10.43,6.57,4.15,7.55,6.22,16.25,7.61,24.89,6.8-6.68,14.4-12.56,22.76-17.17.23-.17.81.23.46.4-8.53,5.53-16.13,11.98-22.87,19.24.4,3.17.75,6.34,1.09,9.45,1.44,14.12,1.33,28.46-.52,42.52-1.5,11.64-4.44,23.39-11.41,33.13-5.47,7.66-15.44,13.42-23.22,5.01Zm16.42-5.47c7.72-9.1,10.95-21.49,12.56-33.01,1.67-12.5,1.96-25.18,1.09-37.74-.23-2.82-.46-5.65-.75-8.47-7.09,8.58-12.96,18.21-17.63,28.58-4.44,9.91-7.84,20.45-9.45,31.17-.75,5.01-1.33,10.43-.81,15.5.35,3.69,1.9,10.2,7.32,9.51,3.11-.4,5.76-3.28,7.66-5.53Z"/>
      <path class="c" d="m282.6,181.63c-1.27-15.61-1.09-31.29-.17-46.9.23-3.46.52-6.97.81-10.49,0,0-.12-1.79.23-2.19,2.13-22.53,6.28-44.88,12.33-66.66,2.3-8.12,17.63-64.76,32.67-54.04,4.67,3.28,4.78,24.83-8.58,63.72-5.99,17.46-15.1,34.4-29.62,52.03-1.38,12.1-2.13,24.2-2.36,36.36-.17,11.87.23,23.68,1.38,35.49,1.27,12.33,2.19,25.01,5.42,36.99.29,1.04-1.5.69-1.73,0-5.13-14.58-9.1-28.87-10.37-44.31Zm8.01-67.53c12.73-15.44,21.66-33.59,28.12-52.66,3.34-9.85,5.99-19.99,8.24-30.19,1.44-6.57,2.59-13.37,1.73-20.11-.46-3.46-1.56-8.01-5.47-4.84-2.02,1.61-3.4,5.19-4.67,7.49-11.52,20.4-17.57,44.19-22.41,66.89-2.36,11.06-4.21,22.18-5.53,33.42Z"/>
      <path class="c" d="m302.42,132.6c.69-8.01,4.15-15.61,8.01-22.53,3.23-5.82,7.14-11.64,13.25-14.75,5.13-2.65,11.58-3.46,16.59-.4,8.24,4.96,6.74,11.75,6.74,11.75-.63,1.04-2.54.52-3.11-.4-2.3-3.8-3.69-8.3-8.99-8.64-4.21-.35-8.41,2.19-11.35,4.9-5.07,4.72-8.35,11.47-11.12,17.69-1.61,3.75-3.05,7.72-3.63,11.75-.29,1.9-.46,3.86-.35,5.82.12,2.65,1.33,4.49,2.94,5.01,5.24,1.61,11.06-12.39,13.31-16.71,1.79-3.46,5.01-11.06,8.24-10.83,3.92.23,6.05,3.34,6.51,6.86.35,3.11.35,6.22.58,9.33.12,1.61.63,8.47,2.77,8.47,2.25,0,7.2-7.84,8.82-10.26,2.54-3.75,4.49-7.32,6.17-11.52.12-.35.92,0,.81.35-2.13,5.76-12.56,35.43-22.24,20.63-1.84-2.77-2.19-6.68-2.59-9.97-.23-1.84-.35-3.69-.4-5.59-1.15,3.34-3.8,7.09-5.47,9.85-1.84,3.11-3.86,6.11-6.11,8.93-3.28,4.26-8.24,8.64-13.89,5.76-5.53-2.77-5.99-10.03-5.47-15.5Z"/>
    </g>
    <path class="c" d="m361.56,233.61c3.34-4.12,6.3-8.63,8.79-13.32,1.29-2.41,4.86-11.78,8.85-8.87,2.83,2.07-2.38,9.11-3.62,11.11-2.97,4.82-6.31,9.4-9.65,13.96,3.98,2.38,8.07,4.46,12.3,6.38,1.08.49,3.8.98,4.44,1.96,1.51,2.31-3.82.4-4.53.18-4.16-1.25-8.19-2.91-12.06-4.9-2.34-1.2-2.32-.9-4,1.09-1.45,1.71-2.97,3.38-4.67,4.85-2.82,2.45-6.53,4.86-10.46,3.95-4.37-1.02-5.73-5.27-4.31-9.24,1.44-4.03,3.71-7.74,5.8-11.45.69-1.22.59-1.32-.29-2.39-.77-.93-1.65-1.78-2.46-2.68-1.49-1.67-2.93-3.37-4.15-5.25-4.85-7.48-8.4-16-8.63-25.01-.22-8.73,1.43-16.91,7.48-23.52,5.13-5.61,12.73-8.75,20.3-6.88,8.16,2.02,12.67,10.11,13.12,18.05.56,9.81-3.6,19-8.08,27.46-2.42,4.57-5.27,8.93-7.93,13.36-.72,1.2-1.44,2.39-2.16,3.59-.81,1.35-1.22,1.7.02,2.83,1.85,1.69,3.9,3.2,5.89,4.71Zm-10.3-9c6.3-9.36,13.27-18.85,17.09-29.56,3.03-8.48,4.07-20.52-3.18-27.36-6.39-6.03-16.2-1.92-21,3.94-2.86,3.49-4.42,7.81-5.41,12.17-1.09,4.78-1.43,10.73-.39,15.55.97,4.47,2.35,8.8,4.31,12.93,2.15,4.53,5.4,8.49,8.57,12.33Zm1.4,6.74c-1.05,2.53-2.19,5.01-3.3,7.52-.62,1.41-2.81,5.74-1.49,7.15,1.93,2.08,10.28-8.17,11.52-9.69-2.26-1.68-4.45-3.3-6.73-4.98Z"/>
  </g>
  <g id="b" data-name="&amp;lt;Layer&amp;gt;">
    <g>
      <path class="c" d="m90.27,303.17c1.9-31.23,17.46-60.15,36.88-84.06,11-13.6,48.74-54.16,64.93-26.04,7.03,12.16.81,30.31-3.34,42.46-5.07,14.75-12.45,28.81-22.53,40.68-.92,1.04-3.69-.4-2.77-1.73,8.93-12.56,16.31-25.93,20.74-40.74,2.3-7.55,3.86-15.38,4.67-23.22.69-7.26.75-18.32-7.43-21.49-6.8-2.71-15.79,3.28-21.38,6.97-5.24,3.4-10.03,7.55-14.52,11.93-9.56,9.33-18.03,20.05-25.35,31.29-14.23,21.72-24.49,47.13-23.85,73.46.23,11.93,2.54,24.89,10.2,34.51,9.05,11.41,24.66,13.08,37.74,8.35,24.78-8.99,42.92-34.46,53.53-57.44.35-.86,2.25-.06,1.9.75-12.33,27.94-34.8,65.57-70.06,63.67-30.94-1.67-40.91-32.84-39.35-59.35Z"/>
      <path class="c" d="m211.78,266.88c10.77-10.43,24.6-3.75,30.31,8.24,2.48,5.24,3.75,13.08,3,20.51,3-.4,8.41-2.82,11.64-7.38.23-.35,1.04.12.81.75-1.21,3.28-8.87,8.35-12.79,9.33-1.38,8.12-5.42,15.38-13.19,17.52-10.77,2.94-15.67-4.96-16.88-14-.35-.12-.75-.23-1.15-.4-15.5-6.05-11.64-25.06-1.73-34.57Zm-2.82,19.59c-.17,3.86,1.15,8.35,4.67,10.49.23.12.52.23.75.35,0-3.92.63-7.72,1.67-10.72.92-2.59,6.45-.29,5.76,2.3-.52,1.84-1.27,5.65-1.5,9.62,1.5.06,2.94,0,4.32-.06,4.61,0,9.16-.52,13.6-1.33.23-.92.4-1.79.52-2.59,1.15-6.74.92-14.4-1.5-20.92-1.09-3-3.92-7.66-7.32-8.53-4.49-1.21-8.35,1.15-11.64,3.98-4.9,4.21-9.1,10.77-9.33,17.4Zm28.41,13.71c-5.47,1.38-11.35,2.94-17.05,2.65.35,5.13,2.19,9.39,7.38,8.76,5.07-.58,8.07-6.17,9.68-11.41Z"/>
      <path class="c" d="m256.03,306.63c-1.84-9.62.06-20.34,3.23-29.44.86-2.59,6.63-.29,5.76,2.3-3.05,8.99-4.44,18.96-2.94,28.41.23,1.15.46,2.3.81,3.46,1.15.58,2.3-.86,3.05-2.19,1.33-2.88,2.07-4.21,2.88-5.99,1.5-3.34,2.94-6.68,4.26-10.08,1.27-3.34,2.59-6.68,4.26-9.85,1.5-2.71,3-6.22,4.9-8.58,2.48-3.11,6.57-1.9,8.24,1.5,1.5,2.88.75,6.51.58,9.62-.29,4.84-.81,9.74-1.04,14.58s-.29,9.74.23,14.58c.23,2.13.29,5.76,1.38,7.61.4,1.73.58,1.73.63.06.35-1.15.69-2.3.92-3.51,2.82-12.91,6.4-28.06,21.55-31.06.52-.06,1.38.63.63.92-11.58,3.57-16.42,12.33-18.03,23.74-.58,3.98-.12,15.15-5.93,14.81-6.97-.46-7.09-11.01-7.43-15.9-.81-10.49.92-20.86,1.27-31.23.06-3.11-.12-4.55-3.17-1.96-1.79,1.5-3.11,4.72-4.15,6.8-1.67,3.51-3.05,7.2-4.21,10.89-1.5,4.84-2.71,15.96-8.12,18.26-5.01,2.13-8.76-3.57-9.56-7.72Z"/>
      <path class="c" d="m310.77,306.63c-1.84-9.62.06-20.34,3.23-29.44.86-2.59,6.63-.29,5.76,2.3-3.05,8.99-4.44,18.96-2.94,28.41.23,1.15.46,2.3.81,3.46,1.15.58,2.3-.86,3.05-2.19,1.33-2.88,2.07-4.21,2.88-5.99,1.5-3.34,2.94-6.68,4.26-10.08,1.27-3.34,2.59-6.68,4.26-9.85,1.5-2.71,3-6.22,4.9-8.58,2.48-3.11,6.57-1.9,8.24,1.5,1.5,2.88.75,6.51.58,9.62-.29,4.84-.81,9.74-1.04,14.58s-.29,9.74.23,14.58c.23,2.13.29,5.76,1.38,7.61.4,1.73.58,1.73.63.06.35-1.15.69-2.3.92-3.51,2.82-12.91,6.4-28.06,21.55-31.06.52-.06,1.38.63.63.92-11.58,3.57-16.42,12.33-18.03,23.74-.58,3.98-.12,15.15-5.93,14.81-6.97-.46-7.09-11.01-7.43-15.9-.81-10.49.92-20.86,1.27-31.23.06-3.11-.12-4.55-3.17-1.96-1.79,1.5-3.11,4.72-4.15,6.8-1.67,3.51-3.05,7.2-4.21,10.89-1.5,4.84-2.71,15.96-8.12,18.26-5.01,2.13-8.76-3.57-9.56-7.72Z"/>
      <path class="c" d="m372.71,266.88c10.77-10.43,24.6-3.75,30.31,8.24,2.48,5.24,3.75,13.08,3,20.51,3-.4,8.41-2.82,11.64-7.38.23-.35,1.04.12.81.75-1.21,3.28-8.87,8.35-12.79,9.33-1.38,8.12-5.42,15.38-13.19,17.52-10.77,2.94-15.67-4.96-16.88-14-.35-.12-.75-.23-1.15-.4-15.5-6.05-11.64-25.06-1.73-34.57Zm-2.82,19.59c-.17,3.86,1.15,8.35,4.67,10.49.23.12.52.23.75.35,0-3.92.63-7.72,1.67-10.72.92-2.59,6.45-.29,5.76,2.3-.52,1.84-1.27,5.65-1.5,9.62,1.5.06,2.94,0,4.32-.06,4.61,0,9.16-.52,13.6-1.33.23-.92.4-1.79.52-2.59,1.15-6.74.92-14.4-1.5-20.92-1.09-3-3.92-7.66-7.32-8.53-4.49-1.21-8.35,1.15-11.64,3.98-4.9,4.21-9.1,10.77-9.33,17.4Zm28.41,13.71c-5.47,1.38-11.35,2.94-17.05,2.65.35,5.13,2.19,9.39,7.38,8.76,5.07-.58,8.07-6.17,9.68-11.41Z"/>
      <path class="c" d="m421.45,301.04c-.12-4.78,0-9.56.35-14.35s.81-9.51,1.56-14.17c.63-3.69.86-7.49,3-10.6,1.09-1.5,3.92.35,4.15,1.67.75,4.55-.98,9.62-1.61,14.23-.52,4.03-.86,8.12-1.09,12.16s-.29,8.01-.23,12.04l.69-3.98c1.09-5.82,2.3-11.58,4.26-17.17,3.17-8.99,8.87-16.65,17.34-21.2.12-.12.58.12.4.29-8.87,6.51-13.6,17.05-16.36,27.43-1.84,6.8-2.82,13.77-4.03,20.63-.58,3.17-.4,7.38-3.23,9.28-1.09.75-2.94-.46-3.11-1.56-.92-5.13-2.02-9.51-2.07-14.69Z"/>
    </g>
  </g>
</svg>

<?xml version="1.0" encoding="UTF-8" standalone="no"?>
<!DOCTYPE svg PUBLIC "-//W3C//DTD SVG 1.1//EN" "http://www.w3.org/Graphics/SVG/1.1/DTD/svg11.dtd">
<svg width="100%" height="100%" viewBox="0 0 451 363" version="1.1" xmlns="http://www.w3.org/2000/svg" xmlns:xlink="http://www.w3.org/1999/xlink" xml:space="preserve" xmlns:serif="http://www.serif.com/" style="fill-rule:evenodd;clip-rule:evenodd;stroke-linejoin:round;stroke-miterlimit:2;">
    <g id="a">
        <g transform="matrix(1.15672,0,0,1.17256,-55.3013,-112.076)">
            <path d="M361.56,233.61C364.9,229.49 367.86,224.98 370.35,220.29C371.64,217.88 375.21,208.51 379.2,211.42C382.03,213.49 376.82,220.53 375.58,222.53C372.61,227.35 369.27,231.93 365.93,236.49C369.91,238.87 374,240.95 378.23,242.87C379.31,243.36 382.03,243.85 382.67,244.83C384.18,247.14 378.85,245.23 378.14,245.01C373.98,243.76 369.95,242.1 366.08,240.11C363.74,238.91 363.76,239.21 362.08,241.2C360.63,242.91 359.11,244.58 357.41,246.05C354.59,248.5 350.88,250.91 346.95,250C342.58,248.98 341.22,244.73 342.64,240.76C344.08,236.73 346.35,233.02 348.44,229.31C349.13,228.09 349.03,227.99 348.15,226.92C347.38,225.99 346.5,225.14 345.69,224.24C344.2,222.57 342.76,220.87 341.54,218.99C336.69,211.51 333.14,202.99 332.91,193.98C332.69,185.25 334.34,177.07 340.39,170.46C345.52,164.85 353.12,161.71 360.69,163.58C368.85,165.6 373.36,173.69 373.81,181.63C374.37,191.44 370.21,200.63 365.73,209.09C363.31,213.66 360.46,218.02 357.8,222.45C357.08,223.65 356.36,224.84 355.64,226.04C354.83,227.39 354.42,227.74 355.66,228.87C357.51,230.56 359.56,232.07 361.55,233.58L361.56,233.61ZM351.26,224.61C357.56,215.25 364.53,205.76 368.35,195.05C371.38,186.57 372.42,174.53 365.17,167.69C358.78,161.66 348.97,165.77 344.17,171.63C341.31,175.12 339.75,179.44 338.76,183.8C337.67,188.58 337.33,194.53 338.37,199.35C339.34,203.82 340.72,208.15 342.68,212.28C344.83,216.81 348.08,220.77 351.25,224.61L351.26,224.61ZM352.66,231.35C351.61,233.88 350.47,236.36 349.36,238.87C348.74,240.28 346.55,244.61 347.87,246.02C349.8,248.1 358.15,237.85 359.39,236.33C357.13,234.65 354.94,233.03 352.66,231.35Z" style="fill:rgb(13,71,161);fill-rule:nonzero;"/>
        </g>
        <g transform="matrix(1,0,0,1,35.5221,5.97534)">
            <g transform="matrix(120,0,0,120,252.656,181.295)">
            </g>
            <text x="0px" y="181.295px" style="font-family:'BetterSaturday', 'Better Saturday';font-size:120px;fill:rgb(13,71,161);">J<tspan x="105.645px " y="181.295px ">a</tspan>ne</text>
        </g>
        <g transform="matrix(1,0,0,1,116.099,172.016)">
            <g transform="matrix(120,0,0,120,283.887,181.295)">
            </g>
            <text x="0px" y="181.295px" style="font-family:'BetterSaturday', 'Better Saturday';font-size:120px;fill:rgb(13,71,161);">Jo<tspan x="160.898px 228.223px " y="181.295px 181.295px ">hn</tspan></text>
        </g>
    </g>
    <g id="b">
    </g>
</svg>
